X:1
T:fr Petra (Polka und Bourre) 
C:Jens Wollschlger
O:Germany
M:2/4
L:1/8
K:G
|:GABc|dBG2|cAF2|dBG2|GABc|dBG2|cAFD|G4:|
|:GABc|dBd2|cAc2|BGB2|GABc|BGB2|AFA2|G4:|
M:3/4
L:1/8
K:G
|:G3ABc|d2B2G2|c2A2F2|d2B2G2|G3ABc|d2B2G2|c2A2F2|G4D2:|
|:G3ABc|d2B2d2|c2A2c2|B2G2D2|G3ABc|B2G2B2|A2F2A2|1 G4D2:|2 G6|
